!!!!SEGMENT: pl-cz--i-8--008_danka--missa-es-agnus-dei.krn
!!!cenid: 18xx:728
!!!COM: Danka
!!!COM-rismid: pe30085946
!!!CDT: <1790->1810
!!!CNT:
!!!OPR: Missa Es
!!!OTL: Agnus Dei
!!!OMV: 008
!!!PDT: 1800
!!!AGN: Sacred; Mass
!!!SMS-siglum: PL-CZ
!!!SMS-shelfmark: I-8
!!!SMS-shelfwork: 001-008 M
!!!SMS-variant:
!!!SMS-altvar:
!!!NIFC-rismid: 300000103
!!!URL-scan: http://repozytorium.nifc.pl/skany/pl-cz-nut--i-8
!!!ONB-nifc: UWAGA: części Mszy: Kyrie, Gloria, Credo, Et incarnatus, Et resurrexit, Sanctus, Benedictus, Agnus Dei, Dona nobis
**kern	**fba	**kern	**kern	**kern	**text	**kern	**text	**kern	**text	**kern	**text	**kern	**kern	**kern	**kern	**kern
*part12	*part12	*part11	*part10	*part9	*part9	*part8	*part8	*part7	*part7	*part6	*part6	*part5	*part4	*part3	*part2	*part1
*staff12	*	*staff11	*staff10	*staff9	*staff9	*staff8	*staff8	*staff7	*staff7	*staff6	*staff6	*staff5	*staff4	*staff3	*staff2	*staff1
*Iorgan	*	*Ivioln	*Ivioln	*Iempty	*	*Itenor	*	*Ialto	*	*Ivox	*	*Iempty	*Iempty	*Ifagot	*Iclars	*Iclars
*I"Organo	*	*I"Violino IIdo	*I"Violino Primo.	*I"Baſso.	*	*I"Tenore	*	*I"Alto	*	*I"Canto.	*	*I"Cornu Secondo in Es.	*I"Cornu Primo in Es.	*I"Fagotto Obligato.	*I"Clarinetto IIdo in Es.	*I"Clarinetto Primo. in Dis
*I'org	*	*I'vn 2	*I'vn 1	*I'B	*	*I'T	*	*I'A	*	*I'C	*	*I'c 2	*I'c 1	*I'fag	*I'cl 2	*I'cl 1
*group5	*	*group4	*group4	*group3	*	*group3	*	*group3	*	*group3	*	*group2	*group2	*group1	*group1	*group1
*clefF4	*	*clefG2	*clefG2	*clefF4	*	*clefC4	*	*clefC3	*	*clefC1	*	*clefG2	*clefG2	*clefF4	*clefG2	*clefG2
*	*	*	*	*	*	*	*	*	*	*	*	*ITrd5c9	*ITrd5c9	*	*ITrd1c2	*ITrd1c2
*k[b-e-a-]	*	*k[b-e-a-]	*k[b-e-a-]	*k[b-e-a-]	*	*k[b-e-a-]	*	*k[b-e-a-]	*	*k[b-e-a-]	*	*k[b-e-a-]	*k[b-e-a-]	*k[b-e-a-]	*k[b-e-a-]	*k[b-e-a-]
*E-:	*	*E-:	*E-:	*E-:	*	*E-:	*	*E-:	*	*E-:	*	*E-:	*E-:	*E-:	*E-:	*E-:
*M2/4	*	*M2/4	*M2/4	*M2/4	*	*M2/4	*	*M2/4	*	*M2/4	*	*M2/4	*M2/4	*M2/4	*M2/4	*M2/4
=1	=1	=1	=1	=1	=1	=1	=1	=1	=1	=1	=1	=1	=1	=1	=1	=1
*	*	*2\right	*	*	*	*	*	*	*	*	*	*2\right	*2\right	*2\right	*2\right	*2\right
!LO:TX:a:t=P:problem:16\, 8\, 4\ middle:global	!	!LO:TX:a:t=P:problem:32\, 16\, 8\, 4\ middle:global	!LO:TX:a:t=P:problem:32\, 16\, 8\, 4\ middle:global	!LO:TX:a:t=P:problem:16\, 8\, 4\ middle:global	!	!LO:TX:a:t=P:problem:16\, 8\, 4\ middle:global	!	!LO:TX:a:t=P:problem:16\, 8\, 4\ middle:global	!	!LO:TX:a:t=P:problem:16\, 8\, 4\ middle:global	!	!LO:TX:a:t=P:problem:16\, 8\, 4\ middle:global	!LO:TX:a:t=P:problem:16\, 8\, 4\ middle:global	!LO:TX:a:t=P:problem:16\, 8\, 4\ middle:global	!LO:TX:a:t=P:problem:16\, 8\, 4\ middle:global	!LO:TX:a:t=P:problem:16\, 8\, 4\ middle:global
!LO:TX:a:t=P:problem:pominięte dopiski czerwonym tuszem:global	!	!LO:TX:a:t=P:problem:pominięte dopiski czerwonym tuszem:global	!LO:TX:a:t=P:problem:pominięte dopiski czerwonym tuszem:global	!LO:TX:a:t=P:problem:znaki BB- E- A-	!	!	!	!LO:TX:a:t=P:problem:pominięte dopiski czerwonym tuszem:global	!	!LO:TX:a:t=P:problem:pominięte dopiski czerwonym tuszem:global	!	!	!	!	!LO:TX:a:t=P:problem:transpozycja in B	!LO:TX:a:t=P:problem:transpozycja in B
!LO:TX:b:t=Agnus	!	!LO:TX:b:t=Agnus	!LO:TX:a:t=Andante	!LO:TX:a:t=Andante	!	!LO:TX:a:t=Andante	!	!	!	!	!	!LO:TX:b:t=Agnus	!LO:TX:a:t=adagio	!LO:TX:b:t=Agnus	!LO:TX:a:t=andte	!LO:TX:b:t=Agnus
!LO:TX:a:t=Andante Solo	!	!LO:TX:a:t=Andante	!LO:TX:b:t=Agnus	!LO:TX:b:t=Agnus	!	!LO:TX:b:t=Agnus	!	!LO:TX:a:t=Andante	!	!LO:TX:a:t=Andante	!	!LO:TX:a:t=Adagio	!LO:TX:b:t=Agnus	!LO:TX:a:t=andante	!LO:TX:b:t=Agnus	!LO:TX:a:t=Andante
!	!	!	!	!LO:N:vis=00	!	!LO:N:vis=00	!	!LO:N:vis=00	!	!LO:N:vis=00	!	!LO:TX:a:t=P:problem:pominięte dopiski czerwonym tuszem:global	!LO:TX:a:t=P:problem:pominięte dopiski czerwonym tuszem:global	!LO:TX:a:t=P:problem:pominięte dopiski czerwonym tuszem:global	!LO:TX:a:t=P:problem:pominięte dopiski czerwonym tuszem:global	!LO:TX:a:t=P:problem:pominięte dopiski czerwonym tuszem:global
8E-\L	.	4g/	(16ee-\LL	0r	.	0r	.	0r	.	0r	.	2E-/	2e-\	8E-\L	2g/	2b-\
.	.	.	16b-\)	.	.	.	.	.	.	.	.	.	.	.	.	.
8E-\	.	.	16b-'\	.	.	.	.	.	.	.	.	.	.	8E-\	.	.
.	.	.	16b-'\JJ	.	.	.	.	.	.	.	.	.	.	.	.	.
8E-\	.	16r	(8.b-\L	.	.	.	.	.	.	.	.	.	.	8E-\	.	.
.	.	16g/LL	.	.	.	.	.	.	.	.	.	.	.	.	.	.
8E-\J	.	16g/	.	.	.	.	.	.	.	.	.	.	.	8E-\J	.	.
.	.	16g/JJ	32cc\LL	.	.	.	.	.	.	.	.	.	.	.	.	.
.	.	.	32dd\JJJ)	.	.	.	.	.	.	.	.	.	.	.	.	.
=2	=2	=2	=2	=2	=2	=2	=2	=2	=2	=2	=2	=2	=2	=2	=2	=2
*	*	*	*	*	*	*	*	*	*	*	*	*	*	*tremolo	*	*
*	*	*	*	*	*	*	*	*	*	*	*	*	*	*tremolo	*	*
8E-\L	6_ 4_	4a-/	(16ee-\LL	.	.	.	.	.	.	.	.	2E-/	2e-\	8E-\L	2a-\	2cc\
.	.	.	16cc\)	.	.	.	.	.	.	.	.	.	.	.	.	.
8E-\	.	.	16cc'\	.	.	.	.	.	.	.	.	.	.	8E-\	.	.
.	.	.	16cc'\JJ	.	.	.	.	.	.	.	.	.	.	.	.	.
8E-\	.	16r	(8.cc\L	.	.	.	.	.	.	.	.	.	.	8E-\	.	.
.	.	16a-/LL	.	.	.	.	.	.	.	.	.	.	.	.	.	.
8E-\J	x	16a-/	.	.	.	.	.	.	.	.	.	.	.	8E-\J	.	.
.	.	16a-/JJ	32dd\LL	.	.	.	.	.	.	.	.	.	.	.	.	.
.	.	.	32ee-\JJJ)	.	.	.	.	.	.	.	.	.	.	.	.	.
=3	=3	=3	=3	=3	=3	=3	=3	=3	=3	=3	=3	=3	=3	=3	=3	=3
8E-\L	7_ 2_	4f/	(16ff\LL	.	.	.	.	.	.	.	.	2E-/	2e-\	8E-\L	2f/	2dd\
.	.	.	16dd\)	.	.	.	.	.	.	.	.	.	.	.	.	.
8E-\	.	.	16dd'\	.	.	.	.	.	.	.	.	.	.	8E-\	.	.
.	.	.	16dd'\JJ	.	.	.	.	.	.	.	.	.	.	.	.	.
8E-\	.	8f/L	(16dd\LL	.	.	.	.	.	.	.	.	.	.	8E-\	.	.
.	.	.	16ff\)	.	.	.	.	.	.	.	.	.	.	.	.	.
8E-\J	.	8f/J	(16aa-\	.	.	.	.	.	.	.	.	.	.	8E-\J	.	.
.	x	.	16ff\JJ)	.	.	.	.	.	.	.	.	.	.	.	.	.
*	*	*	*	*	*	*	*	*	*	*	*	*	*	*Xtremolo	*	*
!	!	!	!LO:LB:g=original	!	!	!	!	!	!	!	!	!	!	!	!	!
=4	=4	=4	=4	=4	=4	=4	=4	=4	=4	=4	=4	=4	=4	=4	=4	=4
8E-\L	9 3	8g/L	(16ff\LL	.	.	.	.	.	.	.	.	8E-/L	8e-\L	8E-\L	8g/L	8ee-\L
.	.	.	16ee-\J)	.	.	.	.	.	.	.	.	.	.	.	.	.
8E-\	.	8g/	8ee-`\J	.	.	.	.	.	.	.	.	8E-/	8e-\	8E-\	8g/	8ee-\
8E-\J	.	8g/J	8r	.	.	.	.	.	.	.	.	8E-/J	8e-\J	8E-\J	8g/J	8ee-\J
8r	.	8r	(32g/LLL	.	.	.	.	.	.	.	.	8r	8r	8r	8r	8r
.	.	.	32f/	.	.	.	.	.	.	.	.	.	.	.	.	.
.	.	.	32g/	.	.	.	.	.	.	.	.	.	.	.	.	.
.	.	.	32a-/JJJ)	.	.	.	.	.	.	.	.	.	.	.	.	.
!LO:LB:g=original	!	!	!	!	!	!	!	!	!	!	!	!	!	!	!	!
=5	=5	=5	=5	=5	=5	=5	=5	=5	=5	=5	=5	=5	=5	=5	=5	=5
!	!	!	!	!LO:N:vis=00	!	!LO:N:vis=00	!	!LO:N:vis=00	!	!LO:N:vis=00	!	!LO:N:vis=0	!LO:N:vis=0	!LO:N:vis=0	!LO:N:vis=0	!LO:N:vis=0
8E-\L	.	8g/L	8.b-\L	0r	.	0r	.	0r	.	0r	.	1r	1r	1r	1r	1r
8E-\	.	8g/	.	.	.	.	.	.	.	.	.	.	.	.	.	.
.	.	.	16cc\Jk	.	.	.	.	.	.	.	.	.	.	.	.	.
8E-\	.	8g/	16b-\LL	.	.	.	.	.	.	.	.	.	.	.	.	.
.	.	.	16cc\	.	.	.	.	.	.	.	.	.	.	.	.	.
8E-\J	.	8g/J	16dd\	.	.	.	.	.	.	.	.	.	.	.	.	.
.	.	.	16ee-\JJ	.	.	.	.	.	.	.	.	.	.	.	.	.
!	!	!LO:LB:g=original	!	!	!	!	!	!	!	!	!	!	!	!	!	!
=6	=6	=6	=6	=6	=6	=6	=6	=6	=6	=6	=6	=6	=6	=6	=6	=6
8E-\L	4	8.a-/L	8.cc\L	.	.	.	.	.	.	.	.	.	.	.	.	.
8E-\	3	.	.	.	.	.	.	.	.	.	.	.	.	.	.	.
.	.	32g/LL	32b-\LL	.	.	.	.	.	.	.	.	.	.	.	.	.
.	.	32a-/JJJ	32cc\JJJ	.	.	.	.	.	.	.	.	.	.	.	.	.
8E-\	.	8g/L	16b-\LL	.	.	.	.	.	.	.	.	.	.	.	.	.
.	.	.	16ee-\	.	.	.	.	.	.	.	.	.	.	.	.	.
8E-\J	.	16a-/L	16ff\	.	.	.	.	.	.	.	.	.	.	.	.	.
.	.	16b-/JJ	16gg\JJ	.	.	.	.	.	.	.	.	.	.	.	.	.
=7	=7	=7	=7	=7	=7	=7	=7	=7	=7	=7	=7	=7	=7	=7	=7	=7
8B-\L	3	(16b-/LL	(16gg\LL	.	.	.	.	.	.	.	.	2r	2r	2r	2r	2r
.	.	16a-/)	16ff\)	.	.	.	.	.	.	.	.	.	.	.	.	.
8B-\	.	16a-'/	16ff'\	.	.	.	.	.	.	.	.	.	.	.	.	.
.	.	16a-'/JJ	16ff'\JJ	.	.	.	.	.	.	.	.	.	.	.	.	.
!	!	!	!LO:LB:g=original	!	!	!	!	!	!	!	!	!	!	!	!	!
8E-\	.	(16cc/LL	(16aa-\LL	.	.	.	.	.	.	.	.	.	.	.	.	.
.	.	16b-/)	16gg\)	.	.	.	.	.	.	.	.	.	.	.	.	.
8E-\J	.	(16a-/	(16ff\	.	.	.	.	.	.	.	.	.	.	.	.	.
.	.	16g/JJ)	16ee-\JJ)	.	.	.	.	.	.	.	.	.	.	.	.	.
=8	=8	=8	=8	=8	=8	=8	=8	=8	=8	=8	=8	=8	=8	=8	=8	=8
!LO:TX:a:t=P:problem:mixed beam	!	!	!LO:TX:a:t=P:problem:klamra łukowa nad oznaczeniem trioli:global	!	!	!	!	!	!	!	!	!	!	!	!	!
8A-\L	6	8a-`/L	24ff\LL	.	.	.	.	.	.	.	.	8r	8r	8r	8r	8r
.	.	.	24ee-\	.	.	.	.	.	.	.	.	.	.	.	.	.
.	.	.	24ff\JJ	.	.	.	.	.	.	.	.	.	.	.	.	.
!	!	!LO:TX:a:t=P:problem:klamra łukowa pod oznaczeniem trioli:global	!	!	!	!	!	!	!	!	!	!	!	!	!	!
!	!	!LO:TUP:b	!	!	!	!	!	!	!	!	!	!	!	!LO:TX:a:t=P:problem:mixed beam	!	!
8A-\	.	24cc/L	24aa-\LL	.	.	.	.	.	.	.	.	8f\L	8a-\L	8A-\L	8a-/L	8ff\L
.	.	24b-/	24gg\	.	.	.	.	.	.	.	.	.	.	.	.	.
.	.	24a-/JJ	24ff\JJ	.	.	.	.	.	.	.	.	.	.	.	.	.
8B-\	4	8g/L	8ee-\L	.	.	.	.	.	.	.	.	8e-\	8g\	8B-\	8g/	8ee-\
8BB-/J	3	8f/J	8dd\J	.	.	.	.	.	.	.	.	8B-\J	8f\J	8BB-/J	8f/J	8dd\J
!	!	!	!	!	!	!	!	!	!	!	!	!	!	!	!	!LO:LB:g=original
=9	=9	=9	=9	=9	=9	=9	=9	=9	=9	=9	=9	=9	=9	=9	=9	=9
*	*	*	*	*	*	*	*	*	*	*	*	*	*	*tremolo	*	*
!	!	!	!	!LO:N:vis=00	!	!LO:N:vis=00	!	!	!	!	!	!	!	!	!	!
4E-\	.	4g/	8ee-\	0r	.	0r	.	[4g\	A-	4ee-\	A-	4G/	4e-\	8E-\L	4g/	4ee-\
.	.	.	8r	.	.	.	.	.	.	.	.	.	.	8E-\	.	.
4r	.	4r	4r	.	.	.	.	16g\LL]	.	16ee-\LL	.	4G/	4e-\	8E-\	(16g/LL	(16ee-\LL
.	.	.	.	.	.	.	.	16a-\JJ	.	16ff\JJ	.	.	.	.	16a-/)	16ff\)
.	.	.	.	.	.	.	.	16b-\LL	-gnus	16gg\LL	-gnus	.	.	8E-\J	(16b-/	(16gg\
.	.	.	.	.	.	.	.	16g\JJ	.	16ee-\JJ	.	.	.	.	16g/JJ)	16ee-\JJ)
*	*	*	*	*	*	*	*	*	*	*	*	*	*	*Xtremolo	*	*
!LO:LB:g=original	!	!	!	!	!	!	!	!	!	!	!	!	!	!LO:LB:g=original	!LO:LB:g=original	!
=10	=10	=10	=10	=10	=10	=10	=10	=10	=10	=10	=10	=10	=10	=10	=10	=10
!	!	!	!	!	!	!	!	!	!	!	!	!	!	!LO:TX:a:t=P:problem:mixed beam	!	!
8r	.	16r	16r	.	.	.	.	16g\LL	De-	16ee-\LL	De-	8B-/L	8f\L	8B-\L	(16g/LL	16ee-\LL
.	.	16r	16d/LL	.	.	.	.	16f\JJ	.	16dd\JJ	.	.	.	.	16f/J)	16dd\J
8BB-/L	.	8d/	16f/	.	.	.	.	8f\	-i	8dd\	-i	8B-/J	8f\J	8BB-/J	8f'/J	8dd\J
.	.	.	16b-/JJ	.	.	.	.	.	.	.	.	.	.	.	.	.
8BB-/	.	16f/LL	16dd\LL	.	.	.	.	4r	.	4r	.	4r	4r	4r	4r	4r
.	.	16d/	16b-\	.	.	.	.	.	.	.	.	.	.	.	.	.
8BB-/J	.	16b-/	16ff\	.	.	.	.	.	.	.	.	.	.	.	.	.
.	.	16f/JJ	16dd\JJ	.	.	.	.	.	.	.	.	.	.	.	.	.
!	!	!	!	!	!	!	!	!LO:LB:g=original	!	!LO:LB:g=original	!	!LO:LB:g=original	!LO:LB:g=original	!	!	!
=11	=11	=11	=11	=11	=11	=11	=11	=11	=11	=11	=11	=11	=11	=11	=11	=11
4BB-/	.	4dd\	4bb-\	.	.	.	.	4f\	qui-	[4dd\	qui-	4B-/	4f\	8BB-/L	4f/	4dd\
.	.	.	.	.	.	.	.	.	.	.	.	.	.	8BB-/	.	.
4r	.	4r	4r	.	.	.	.	16f\LL	.	16dd\LL]	.	4B-/	4f\	8BB-/	(16f/LL	(16dd\LL
.	.	.	.	.	.	.	.	16g\JJ	.	16ee-\JJ	.	.	.	.	16g/)	16ee-\)
.	.	.	.	.	.	.	.	16a-\LL	.	16ff\LL	.	.	.	8BB-/J	(16a-/	(16ff\
.	.	.	.	.	.	.	.	16f\JJ	.	16dd\JJ	.	.	.	.	16f/JJ)	16dd\JJ)
!	!	!	!LO:LB:g=original	!	!	!	!	!	!	!	!	!	!	!	!	!
=12	=12	=12	=12	=12	=12	=12	=12	=12	=12	=12	=12	=12	=12	=12	=12	=12
!	!	!	!	!	!	!	!	!	!	!	!	!	!	!LO:TX:a:t=P:problem:mixed beam	!	!
8r	.	16r	16r	.	.	.	.	16f\LL	-tol-	16dd\LL	-tol-	8G/L	8e-\L	8E-\L	(16f/LL	(16dd\LL
.	.	16B-/LL	16e-/LL	.	.	.	.	16g\JJ	.	16ee-\JJ	.	.	.	.	16g/J)	16ee-\J)
8E-\L	.	16e-/	16g/	.	.	.	.	8g\	-lis	8ee-\	-lis	8G/J	8e-\J	8EE-/J	8g'/J	8ee-`\J
.	.	16g/JJ	16b-/JJ	.	.	.	.	.	.	.	.	.	.	.	.	.
!	!	!LO:LB:g=original	!	!	!	!	!	!	!	!	!	!	!	!	!	!
8E-\	.	16b-\LL	16ee-\LL	.	.	.	.	4r	.	4r	.	4r	4r	4r	4r	4r
.	.	16g\	16b-\	.	.	.	.	.	.	.	.	.	.	.	.	.
8E-\J	.	16ee-\	16gg\	.	.	.	.	.	.	.	.	.	.	.	.	.
.	.	16b-\JJ	16ee-\JJ	.	.	.	.	.	.	.	.	.	.	.	.	.
=13	=13	=13	=13	=13	=13	=13	=13	=13	=13	=13	=13	=13	=13	=13	=13	=13
!	!	!	!	!LO:N:vis=00	!	!LO:N:vis=00	!	!	!	!	!	!	!	!	!	!
4E-\	.	4gg\	4bb-\	0r	.	0r	.	[4g\	pec-	[4ee-\	pec-	4G/	4e-\	8E-\L	4g/	4ee-\
.	.	.	.	.	.	.	.	.	.	.	.	.	.	8E-\	.	.
4r	.	4r	4r	.	.	.	.	16g\LL]	.	16ee-\LL]	.	4G/	4e-\	8E-\	(16g/LL	(16ee-\LL
.	.	.	.	.	.	.	.	16a-\JJ	.	16ff\JJ	.	.	.	.	16a-/)	16ff\)
.	.	.	.	.	.	.	.	16b-\LL	.	16gg\LL	.	.	.	8E-\J	(16b-/	(16gg\
.	.	.	.	.	.	.	.	16g\JJ	.	16ee-\JJ	.	.	.	.	16g/JJ)	16ee-\JJ)
!	!	!	!	!	!	!	!	!	!	!LO:LB:g=original	!	!	!	!LO:LB:g=original	!	!LO:LB:g=original
=14	=14	=14	=14	=14	=14	=14	=14	=14	=14	=14	=14	=14	=14	=14	=14	=14
*	*	*	*	*	*	*	*	*	*	*	*	*	*	*tremolo	*	*
!LO:TX:a:t=3.	!	!LO:N:vis=0	!LO:N:vis=0	!	!	!	!	!	!	!	!	!	!	!	!	!
!LO:N:vis=0	!	!	!	!	!	!	!	!	!	!	!	!	!	!	!	!
1r	.	1r	1r	.	.	.	.	16g\LL	-ca-	16ee-\LL	-ca-	4B-/	4f\	8BB-/L	(16g/LL	(16ee-\LL
.	.	.	.	.	.	.	.	16f\JJ	.	16dd\JJ	.	.	.	.	16f/JJ)	16dd\JJ)
.	.	.	.	.	.	.	.	4f\	-ta	4dd\	-ta	.	.	8BB-/	4f`/	4dd\
.	.	.	.	.	.	.	.	.	.	.	.	4B-/	4f\	8BB-/	.	.
!	!	!	!	!	!	!	!	!LO:LB:g=original	!	!	!	!	!	!	!	!
.	.	.	.	.	.	.	.	16g\LL	.	16ee-\LL	.	.	.	8BB-/J	(16g/LL	(16ee-\LL
.	.	.	.	.	.	.	.	16a-\JJ	.	16ff\JJ	.	.	.	.	16a-/JJ)	16ff\JJ)
*	*	*	*	*	*	*	*	*	*	*	*	*	*	*Xtremolo	*	*
=15	=15	=15	=15	=15	=15	=15	=15	=15	=15	=15	=15	=15	=15	=15	=15	=15
!	!	!	!	!	!	!	!	!	!	!	!	!	!	!LO:TX:a:t=P:problem:mixed beam	!	!
.	.	.	.	.	.	.	.	8b-\	pec-	8gg\	pec-	8e-\L	8g\L	8E-\L	8b-`\L	8gg\L
.	.	.	.	.	.	.	.	16cc\	.	16aa-\	.	8f\	8a-\	8A-\	(16cc\L	(16aa-\L
.	.	.	.	.	.	.	.	16a-\	.	16ff\	.	.	.	.	16a-\JJ)	16ff\JJ)
!	!	!	!	!	!	!	!	!	!	!	!	!	!	!	!LO:LB:g=original	!
.	.	.	.	.	.	.	.	8g\	-ca-	8ee-\	-ca-	8e-\	8g\	8B-\	8g/L	8ee-\L
.	.	.	.	.	.	.	.	8f\	-ta	8dd\	-ta	8B-\J	8f\J	8BB-/J	8f/J	8dd\J
=16	=16	=16	=16	=16	=16	=16	=16	=16	=16	=16	=16	=16	=16	=16	=16	=16
2r	.	16r	16r	.	.	.	.	8g\	mun-	8ee-\	mun-	4G/	4e-\	4E-\	8g/L	8ee-\L
!	!	!LO:N:vis=8	!	!	!	!	!	!	!	!	!	!	!	!	!	!
.	.	16ee-`\LL	16gg`\LL	.	.	.	.	.	.	.	.	.	.	.	.	.
.	.	(16ee-\	(16gg\	.	.	.	.	8g\	-di	8ee-\	-di	.	.	.	8g/J	8ee-\J
.	.	16b-\JJ)	16ee-\JJ)	.	.	.	.	.	.	.	.	.	.	.	.	.
.	.	(16b-/LL	(16ee-\LL	.	.	.	.	4r	.	4r	.	4r	4r	4r	4r	4r
.	.	16g/)	16b-\)	.	.	.	.	.	.	.	.	.	.	.	.	.
.	.	(16g/	(16b-\	.	.	.	.	.	.	.	.	.	.	.	.	.
.	.	16e-/JJ)	16g\JJ)	.	.	.	.	.	.	.	.	.	.	.	.	.
!	!	!	!	!	!	!	!	!LO:TX:a:t=P:problem:po tym takcie skreślone dwa takty	!	!	!	!	!	!	!	!
!	!	!	!	!	!	!	!	!LO:LB:g=original	!	!	!	!	!	!	!	!
=17	=17	=17	=17	=17	=17	=17	=17	=17	=17	=17	=17	=17	=17	=17	=17	=17
8E-\L	.	(16f/LL	(16f/LL	4E-\	Mi-	4e-\	Mi-	4g\	mi-	4ee-\	mi-	4e-\	4g\	8E-\L	4ee-\	4gg\
.	.	16g/)	16g/)	.	.	.	.	.	.	.	.	.	.	.	.	.
8E-\	.	16g'/	16g'/	.	.	.	.	.	.	.	.	.	.	8E-\	.	.
.	.	16g'/JJ	16g'/JJ	.	.	.	.	.	.	.	.	.	.	.	.	.
8E-\	4 2_	(16an/LL	(16an/LL	4E-\	-se-	4f\	-se-	4an\	-se-	4cc\	-se-	4f\	4f\	8E-\	4cc\	4aa\
.	.	16b-/)	16b-/)	.	.	.	.	.	.	.	.	.	.	.	.	.
8E-\J	n_	(16cc/	(16cc/	.	.	.	.	.	.	.	.	.	.	8E-\J	.	.
.	x	16a/JJ)	16a/JJ)	.	.	.	.	.	.	.	.	.	.	.	.	.
!LO:LB:g=original	!	!	!LO:LB:g=original	!	!	!	!	!	!	!LO:LB:g=original	!	!	!	!LO:LB:g=original	!	!
=18	=18	=18	=18	=18	=18	=18	=18	=18	=18	=18	=18	=18	=18	=18	=18	=18
*	*	*	*	*	*	*	*	*	*	*	*	*	*	*tremolo	*	*
!LO:TX:a:t=P:problem:skreślone 2 takty	!	!	!	!	!	!	!	!	!	!	!	!	!	!	!	!
8D\L	6_	(16an/LL	(16a-\LL	4D\	-re-	4f\	-re-	4b-\	-re-	4dd\	-re-	2B-/	2f\	8D\L	2dd\	4bb-\
.	.	16b-/)	16b-\)	.	.	.	.	.	.	.	.	.	.	.	.	.
8D\	.	16b-'/	16b-'\	.	.	.	.	.	.	.	.	.	.	8D\	.	.
.	.	16b-'/JJ	16b-'\JJ	.	.	.	.	.	.	.	.	.	.	.	.	.
8D\	.	(16ee-\LL	(16ff\LL	4D\	-re	4f\	-re	4b-\	-re	4dd\	-re	.	.	8D\	.	4ff\
.	.	16dd\)	16dd\)	.	.	.	.	.	.	.	.	.	.	.	.	.
8D\J	x	(16cc\	(16cc\	.	.	.	.	.	.	.	.	.	.	8D\J	.	.
.	.	16b-\JJ)	16b-\JJ)	.	.	.	.	.	.	.	.	.	.	.	.	.
*	*	*	*	*	*ij	*	*ij	*	*	*	*	*	*	*Xtremolo	*	*
=19	=19	=19	=19	=19	=19	=19	=19	=19	=19	=19	=19	=19	=19	=19	=19	=19
8E-\L	2	(16a-/LL	(16a-/LL	4E-\	mi-	4e-\	mi-	4g\	mi-	4ee-\	mi-	4e-\	4g\	8E-\L	4ee-\	4gg\
.	.	16g/)	16g/)	.	.	.	.	.	.	.	.	.	.	.	.	.
8E-\	.	16g'/	16g'/	.	.	.	.	.	.	.	.	.	.	8E-\	.	.
.	.	16g'/JJ	16g'/JJ	.	.	.	.	.	.	.	.	.	.	.	.	.
8E-\	4 2_	(16an/LL	(16an/LL	4E-\	-se-	4f\	-se-	4an\	-se-	4cc\	-se-	4f\	4f\	8E-\	4cc\	4aa\
.	.	16b-/)	16b-/)	.	.	.	.	.	.	.	.	.	.	.	.	.
8E-\J	n_	(16cc/	(16cc/	.	.	.	.	.	.	.	.	.	.	8E-\J	.	.
.	x	16a/JJ)	16a/JJ)	.	.	.	.	.	.	.	.	.	.	.	.	.
!	!	!LO:LB:g=original	!	!	!	!	!	!	!	!	!	!	!LO:LB:g=original	!	!	!LO:LB:g=original
=20	=20	=20	=20	=20	=20	=20	=20	=20	=20	=20	=20	=20	=20	=20	=20	=20
*	*	*	*	*	*	*	*	*	*	*	*	*	*	*tremolo	*	*
8D\L	6_	(16a-/LL	(16a-\LL	4D\	-re-	4f\	-re-	4b-\	-re-	4dd\	-re-	2B-/	2f\	8D\L	2dd\	4bb-\
.	.	16b-/)	16b-\)	.	.	.	.	.	.	.	.	.	.	.	.	.
8D\	.	16b-'/	16b-'\	.	.	.	.	.	.	.	.	.	.	8D\	.	.
.	.	16b-'/JJ	16b-'\JJ	.	.	.	.	.	.	.	.	.	.	.	.	.
8D\	.	(16ff\LL	(16ff\LL	4D\	-re	4f\	-re	4b-\	-re	4dd\	-re	.	.	8D\	.	4ff\
.	.	16dd\)	16dd\)	.	.	.	.	.	.	.	.	.	.	.	.	.
8D\J	x	(16cc\	(16cc\	.	.	.	.	.	.	.	.	.	.	8D\J	.	.
.	.	16b-\JJ)	16b-\JJ)	.	.	.	.	.	.	.	.	.	.	.	.	.
!LO:LB:g=original	!	!	!	!	!	!LO:LB:g=original	!	!	!	!	!	!LO:LB:g=original	!	!	!	!
=21	=21	=21	=21	=21	=21	=21	=21	=21	=21	=21	=21	=21	=21	=21	=21	=21
*tremolo	*	*	*	*	*Xij	*	*	*	*ij	*	*ij	*	*	*	*	*
*tremolo	*	*	*	*	*	*	*	*	*	*	*	*	*	*	*	*
8AAn/L	6 5	(16b-\LL	(16b-\LL	4An\	Mi-	4f\	mi-	4cc\	mi-	4ee-\	mi-	2f\	2f\	8AAn/L	2cc\	2ee-\
.	.	16cc\)	16cc\)	.	.	.	.	.	.	.	.	.	.	.	.	.
8AAn/	.	16cc'\	16cc'\	.	.	.	.	.	.	.	.	.	.	8AAn/	.	.
.	.	16cc'\JJ	16cc'\JJ	.	.	.	.	.	.	.	.	.	.	.	.	.
!	!	!	!LO:LB:g=original	!	!	!	!	!	!	!	!	!	!	!	!	!
8AAn/	.	(16ee-\LL	(16ee-\LL	4A\	-ſe-	4f\	-se-	4cc\	-se-	4ee-\	-se-	.	.	8AAn/	.	.
.	.	32dd\L	32dd\L	.	.	.	.	.	.	.	.	.	.	.	.	.
.	.	32ee-\JJJ)	32ee-\JJJ)	.	.	.	.	.	.	.	.	.	.	.	.	.
8AAn/J	.	16ff\LL	16ff\LL	.	.	.	.	.	.	.	.	.	.	8AAn/J	.	.
.	.	16ee-\JJ	16ee-\JJ	.	.	.	.	.	.	.	.	.	.	.	.	.
!	!	!	!	!LO:LB:g=original	!	!	!	!	!	!	!	!	!	!	!	!
=22	=22	=22	=22	=22	=22	=22	=22	=22	=22	=22	=22	=22	=22	=22	=22	=22
8BB-/L	.	(16ee-\LL	(16ee-\LL	4B-\	-re-	4f\	-re-	4b-\	-re-	4dd\	-re-	2B-/	2f\	8BB-/L	2b-\	2dd\
.	.	16dd\)	16dd\)	.	.	.	.	.	.	.	.	.	.	.	.	.
8BB-/	.	16dd'\	16dd'\	.	.	.	.	.	.	.	.	.	.	8BB-/	.	.
.	.	16dd'\JJ	16dd'\JJ	.	.	.	.	.	.	.	.	.	.	.	.	.
8BB-/	.	8dd\L	(16ff\LL	4B-\	-re	4f\	-re	4b-\	-re	4dd\	-re	.	.	8BB-/	.	.
.	.	.	32ee-\L	.	.	.	.	.	.	.	.	.	.	.	.	.
.	.	.	32ff\JJJ)	.	.	.	.	.	.	.	.	.	.	.	.	.
8BB-/J	.	8dd\J	16gg\LL	.	.	.	.	.	.	.	.	.	.	8BB-/J	.	.
.	.	.	16ff\JJ	.	.	.	.	.	.	.	.	.	.	.	.	.
*Xtremolo	*	*	*	*	*	*	*	*	*	*	*	*	*	*	*	*
*Xtremolo	*	*	*	*	*	*	*Xij	*	*Xij	*	*Xij	*	*	*Xtremolo	*	*
=23	=23	=23	=23	=23	=23	=23	=23	=23	=23	=23	=23	=23	=23	=23	=23	=23
!LO:TX:a:t=P:problem:mixed beam	!	!	!	!	!	!	!	!	!	!	!	!	!	!LO:TX:a:t=P:problem:mixed beam	!	!
8E-\L	6	8cc\L	24ee-\LL	(4E-\	no-	4g\	no-	(4cc\	no-	4ee-\	no-	4e-\	4g\	8E-\L	4cc\	4ee-\
.	.	.	24dd\	.	.	.	.	.	.	.	.	.	.	.	.	.
.	.	.	24ee-\JJ	.	.	.	.	.	.	.	.	.	.	.	.	.
8E-\	.	8cc\	24gg\LL	.	.	.	.	.	.	.	.	.	.	8E-\	.	.
.	.	.	24ff\	.	.	.	.	.	.	.	.	.	.	.	.	.
.	.	.	24ee-\JJ	.	.	.	.	.	.	.	.	.	.	.	.	.
8F\	4	8b-\	8dd\L	8F\)	.	8f\	.	8b-\)	.	(8dd\	.	8f\L	8f\L	8F\	8b-\L	8dd\L
8FF\J	n	8an\J	8cc\J	8F\	.	8f\	.	8an\	.	8cc\)	.	8f\J	8f\J	8FF/J	8a\J	8cc\J
!	!	!	!	!	!	!	!	!	!	!LO:LB:g=original	!	!	!	!	!LO:LB:g=original	!
=24	=24	=24	=24	=24	=24	=24	=24	=24	=24	=24	=24	=24	=24	=24	=24	=24
*^	*	*	*	*	*	*	*	*	*	*	*	*	*	*	*	*
!	!	!	!	!	!	!	!	!	!	!	!LO:SIC:l:s=-bis:v	!	!	!	!	!	!
4r	4BB-\	3	4b-\	4dd\	4BB-/	-bis	4f\	-bis	4b-\	-bis	4dd\	-bi	4B-/	4f\	8BB-/L	(16b-\LL	(16dd\LL
.	.	.	.	.	.	.	.	.	.	.	.	.	.	.	.	16dd\)	16ff\)
.	.	.	.	.	.	.	.	.	.	.	.	.	.	.	8BB-/J	16dd'\	16ff'\
.	.	.	.	.	.	.	.	.	.	.	.	.	.	.	.	16dd'\JJ	16ff'\JJ
!	!	!	!	!	!	!	!	!	!	!	!	!	!	!	!LO:TX:a:t=P:problem:mixed beam	!	!
8F/L	4r	.	4r	4r	4r	.	4r	.	4r	.	4r	.	16r	16r	8F\L	(8.a\L	(8.cc\L
.	.	.	.	.	.	.	.	.	.	.	.	.	16f'\LL	16f'\LL	.	.	.
8F/J	.	.	.	.	.	.	.	.	.	.	.	.	16f'\	16f'\	8FF/J	.	.
.	.	.	.	.	.	.	.	.	.	.	.	.	16f'\JJ	16f'\JJ	.	32b-\LL	32dd\LL
.	.	.	.	.	.	.	.	.	.	.	.	.	.	.	.	32cc\JJJ)	32ee-\JJJ)
!	!	!	!	!LO:LB:g=original	!	!	!	!	!	!	!	!	!	!	!	!	!
=25	=25	=25	=25	=25	=25	=25	=25	=25	=25	=25	=25	=25	=25	=25	=25	=25	=25
!LO:TX:b:t=1	!	!	!LO:N:vis=0	!LO:N:vis=0	!LO:N:vis=0	!	!LO:N:vis=00	!	!LO:N:vis=00	!	!LO:N:vis=00	!	!	!	!	!	!
8BB-/L	2r	.	1r	1r	1r	.	0r	.	0r	.	0r	.	4B-/	4f\	8BB-/L	(16b-\LL	(16dd\LL
.	.	.	.	.	.	.	.	.	.	.	.	.	.	.	.	16dd\)	16ff\)
8BB-/J	.	.	.	.	.	.	.	.	.	.	.	.	.	.	8BB-/J	16dd'\	16ff'\
.	.	.	.	.	.	.	.	.	.	.	.	.	.	.	.	16dd'\JJ	16ff'\JJ
!LO:TX:a:t=P:problem:mixed beam	!	!	!	!	!	!	!	!	!	!	!	!	!	!	!LO:TX:a:t=P:problem:mixed beam	!	!
8F\L	.	.	.	.	.	.	.	.	.	.	.	.	16r	16r	8F\L	(8.a\L	(8.cc\L
.	.	.	.	.	.	.	.	.	.	.	.	.	16f'\LL	16f'\LL	.	.	.
8FF/J	.	.	.	.	.	.	.	.	.	.	.	.	16f'\	16f'\	8FF/J	.	.
.	.	.	.	.	.	.	.	.	.	.	.	.	16f'\JJ	16f'\JJ	.	32b-\LL	32dd\LL
.	.	.	.	.	.	.	.	.	.	.	.	.	.	.	.	32cc\JJJ)	32ee-\JJJ)
!	!	!	!	!	!	!	!	!	!	!	!	!	!	!	!	!	!LO:LB:g=original
=26	=26	=26	=26	=26	=26	=26	=26	=26	=26	=26	=26	=26	=26	=26	=26	=26	=26
!LO:TX:b:t=2	!	!	!	!	!	!	!	!	!	!	!	!	!	!	!	!	!
*	*	*	*	*	*	*	*	*	*	*	*	*	*	*	*tremolo	*	*
8BB-/L	2r	.	.	.	.	.	.	.	.	.	.	.	4B-/	4f\	8BB-/L	(16b-\LL	(16dd\LL
.	.	.	.	.	.	.	.	.	.	.	.	.	.	.	.	16dd\)	16ff\)
8BB-/	.	.	.	.	.	.	.	.	.	.	.	.	.	.	8BB-/	16dd'\	16ff'\
.	.	.	.	.	.	.	.	.	.	.	.	.	.	.	.	16dd'\JJ	16ff'\JJ
8BB-/	.	.	.	.	.	.	.	.	.	.	.	.	8B-/L	8f\L	8BB-/	(16dd\LL	(16bb-\LL
.	.	.	.	.	.	.	.	.	.	.	.	.	.	.	.	16ff\)	16aa\)
8BB-/J	.	.	.	.	.	.	.	.	.	.	.	.	8B-/J	8f\J	8BB-/J	(16ee-\	(16gg\
.	.	.	.	.	.	.	.	.	.	.	.	.	.	.	.	16dd\JJ)	16ff\JJ)
*	*	*	*	*	*	*	*	*	*	*	*	*	*	*	*Xtremolo	*	*
=27	=27	=27	=27	=27	=27	=27	=27	=27	=27	=27	=27	=27	=27	=27	=27	=27	=27
!	!	!	!	!	!	!	!	!	!	!	!	!	!	!	!LO:TX:a:t=P:problem:mixed beam	!	!
8E-/	8r	.	8r	8r	2r	.	.	.	.	.	.	.	8e-\L	4g\	8E-\L	8ee-`\L	8gg`\L
!LO:TX:a:t=P:problem:mixed beam	!	!	!	!	!	!	!	!	!	!	!	!	!	!	!	!	!
8ryy	8E-\L	6	8e-/L	8e-/L	.	.	.	.	.	.	.	.	8e-\	.	8E-\	24ee-\L	24gg\L
!	!	!	!	!	!	!	!	!	!	!	!	!	!	!	!	!LO:TX:a:t=P:problem:klamra łukowa	!
.	.	.	.	.	.	.	.	.	.	.	.	.	.	.	.	24dd\	24ff\
.	.	.	.	.	.	.	.	.	.	.	.	.	.	.	.	24cc\JJ	24ee-\JJ
!	!	!	!	!	!	!	!	!	!	!	!	!	!	!	!	!LO:LB:g=original	!
4ryy	8F\	4	8d/	8d/	.	.	.	.	.	.	.	.	8f\	8f\L	8F\	8b-\L	8dd\L
.	8FF/J	n	8c/J	8c/J	.	.	.	.	.	.	.	.	8f\J	8f\J	8FF/J	8a\J	8cc\J
*v	*v	*	*	*	*	*	*	*	*	*	*	*	*	*	*	*	*
!LO:LB:g=original	!	!LO:LB:g=original	!	!	!	!	!	!	!	!	!	!LO:LB:g=original	!LO:LB:g=original	!	!	!
=28	=28	=28	=28	=28	=28	=28	=28	=28	=28	=28	=28	=28	=28	=28	=28	=28
*	*	*tremolo	*	*	*	*	*	*	*	*	*	*	*	*	*	*
*	*	*tremolo	*	*	*	*	*	*	*	*	*	*	*	*	*	*
8BB-/L	.	8d/L	8d/L	8.BB-/L	A-	.	.	.	.	.	.	4B-/	4f\	4BB-/	4b-\	4dd\
8BB-/	.	8d/	8f/	.	.	.	.	.	.	.	.	.	.	.	.	.
.	.	.	.	32C/LL	.	.	.	.	.	.	.	.	.	.	.	.
.	.	.	.	32D/JJJ	.	.	.	.	.	.	.	.	.	.	.	.
8BB-/	.	8d/	8f/	16E-\LL	.	.	.	.	.	.	.	4r	4r	4r	4r	4r
.	.	.	.	16F\JJ	.	.	.	.	.	.	.	.	.	.	.	.
8BB-/J	.	8d/J	8f/J	16G\LL	-gnus	.	.	.	.	.	.	.	.	.	.	.
.	.	.	.	16An\JJ	.	.	.	.	.	.	.	.	.	.	.	.
=29	=29	=29	=29	=29	=29	=29	=29	=29	=29	=29	=29	=29	=29	=29	=29	=29
!	!	!	!	!	!	!LO:N:vis=00	!	!LO:N:vis=00	!	!LO:N:vis=00	!LO:N:vis=00	!LO:N:vis=00	!LO:N:vis=00	!LO:N:vis=00	!LO:N:vis=00	!LO:N:vis=00
8BB-/L	.	8d/L	8f/L	8.B-\L	De-	0r	.	0r	.	0r	.	0r	0r	0r	0r	0r
8BB-/	.	8d/	8f/	.	.	.	.	.	.	.	.	.	.	.	.	.
.	.	.	.	32d\LL	.	.	.	.	.	.	.	.	.	.	.	.
.	.	.	.	32c\JJJ	.	.	.	.	.	.	.	.	.	.	.	.
8D/	6_	8d/	8f/	8B-\	-i	.	.	.	.	.	.	.	.	.	.	.
8D/J	x	8d/J	8f/J	8B-\	qui-	.	.	.	.	.	.	.	.	.	.	.
!	!	!	!	!LO:LB:g=original	!	!	!	!	!	!	!	!	!	!	!	!
=30	=30	=30	=30	=30	=30	=30	=30	=30	=30	=30	=30	=30	=30	=30	=30	=30
8E-\L	6	2c/	8g/L	16B-\LL	-tol-	.	.	.	.	.	.	.	.	.	.	.
.	.	.	.	16c\JJ	.	.	.	.	.	.	.	.	.	.	.	.
8E-\	.	.	8g/	4c\	-lis	.	.	.	.	.	.	.	.	.	.	.
8F\	n_	.	8an/	.	.	.	.	.	.	.	.	.	.	.	.	.
8F\J	x	.	8a/J	8An\	pec-	.	.	.	.	.	.	.	.	.	.	.
*	*	*Xtremolo	*	*	*	*	*	*	*	*	*	*	*	*	*	*
=31	=31	=31	=31	=31	=31	=31	=31	=31	=31	=31	=31	=31	=31	=31	=31	=31
8G\L	.	8d/L	8b-/L	16A-\LL	-ca-	.	.	.	.	.	.	.	.	.	.	.
.	.	.	.	16B-\JJ	.	.	.	.	.	.	.	.	.	.	.	.
8G\	.	8d/	8b-/	4B-\	-ta	.	.	.	.	.	.	.	.	.	.	.
8D\	6	8B-/	8f/	.	.	.	.	.	.	.	.	.	.	.	.	.
8D\J	.	8B-/J	8f/J	8B-\	qui-	.	.	.	.	.	.	.	.	.	.	.
!	!	!	!LO:LB:g=original	!	!	!	!	!	!	!	!	!	!	!	!	!
=32	=32	=32	=32	=32	=32	=32	=32	=32	=32	=32	=32	=32	=32	=32	=32	=32
*	*	*tremolo	*	*	*	*	*	*	*	*	*	*	*	*	*	*
8E-\L	6	8c/L	8g/L	16B-\LL	-tol-	.	.	.	.	.	.	.	.	.	.	.
.	.	.	.	16c\JJ	.	.	.	.	.	.	.	.	.	.	.	.
8E-\	.	8c/	8g/	4c\	-lis	.	.	.	.	.	.	.	.	.	.	.
8F\	n	8c/	8an/	.	.	.	.	.	.	.	.	.	.	.	.	.
8F\J	.	8c/J	8a/J	8An\	qui-	.	.	.	.	.	.	.	.	.	.	.
*	*	*Xtremolo	*	*	*	*	*	*	*	*	*	*	*	*	*	*
!LO:PB:g=original	!	!	!	!	!	!	!	!	!	!	!	!	!	!	!	!
=33	=33	=33	=33	=33	=33	=33	=33	=33	=33	=33	=33	=33	=33	=33	=33	=33
!	!	!	!	!	!	!LO:N:vis=0	!	!LO:N:vis=0	!	!LO:N:vis=0	!	!LO:N:vis=0	!LO:N:vis=0	!LO:N:vis=0	!LO:N:vis=0	!LO:N:vis=0
8BB-'/L	.	8d/L	8b-\L	8B-\	-tol-	1r	.	1r	.	1r	.	1r	1r	1r	1r	1r
16D'/L	.	16d/L	16dd\L	16d\	-lis	.	.	.	.	.	.	.	.	.	.	.
16F'/JJ	.	16f/JJ	16ff\JJ	16f\	pec-	.	.	.	.	.	.	.	.	.	.	.
16E-'/LL	.	16e-/LL	16ee-\LL	16e-\LL	-ca-	.	.	.	.	.	.	.	.	.	.	.
16D'/	.	16d/	16dd\	16d\JJ	.	.	.	.	.	.	.	.	.	.	.	.
16C'/	.	16c/	16cc\	16c\LL	-ta	.	.	.	.	.	.	.	.	.	.	.
16BB-'/JJ	.	16B-/JJ	16b-\JJ	16B-\JJ	.	.	.	.	.	.	.	.	.	.	.	.
=34	=34	=34	=34	=34	=34	=34	=34	=34	=34	=34	=34	=34	=34	=34	=34	=34
!LO:TX:a:t=P:problem:mixed beam	!	!	!	!	!	!	!	!	!	!	!	!	!	!	!	!
8F\L	.	8f/	8ff\	8f\	mun-	.	.	.	.	.	.	.	.	.	.	.
8FF/J	.	16r	16r	8F\	-di	.	.	.	.	.	.	.	.	.	.	.
.	.	16a-/	16cc\	.	.	.	.	.	.	.	.	.	.	.	.	.
8r	.	16a-\LL	16cc\LL	4r	.	.	.	.	.	.	.	.	.	.	.	.
.	.	16b-\	16dd\	.	.	.	.	.	.	.	.	.	.	.	.	.
8F\	n	16b-\	16dd\	.	.	.	.	.	.	.	.	.	.	.	.	.
.	.	16cc\JJ	16ee-\JJ	.	.	.	.	.	.	.	.	.	.	.	.	.
!	!	!	!	!LO:PB:g=original	!	!	!	!	!	!	!	!	!	!	!	!
=35	=35	=35	=35	=35	=35	=35	=35	=35	=35	=35	=35	=35	=35	=35	=35	=35
4BB-/	.	4b-\	4dd\	8r	.	8r	.	8r	.	8r	.	8r	8r	8r	16r	16r
.	.	.	.	.	.	.	.	.	.	.	.	.	.	.	16b-'\LL	16dd'\LL
.	.	.	.	8B-\	A-	8f\	A-	8b-\	A-	8dd\	A-	8B-/L	8f\L	8BB-/L	16b-'\	16dd'\
.	.	.	.	.	.	.	.	.	.	.	.	.	.	.	16b-'\JJ	16dd'\JJ
4r	.	4r	4r	4B-\	.	4f\	.	16b-\LL	.	16dd\LL	.	8B-/	8f\	8BB-/	(16b-\LL	(16dd\LL
.	.	.	.	.	.	.	.	16an\	.	16cc\	.	.	.	.	16a\)	16cc\)
.	.	.	.	.	.	.	.	16b-\	.	16dd\	.	8B-/J	8f\J	8BB-/J	(16b-\	(16dd\
.	.	.	.	.	.	.	.	16cc\JJ	.	16ee-\JJ	.	.	.	.	16cc\JJ)	16ee-\JJ)
!	!	!	!LO:LB:g=original	!	!	!LO:LB:g=original	!	!	!	!	!	!	!	!	!	!LO:LB:g=original
=36	=36	=36	=36	=36	=36	=36	=36	=36	=36	=36	=36	=36	=36	=36	=36	=36
8r	.	16r	16r	4B-\	-gnus	4f\	-gnus	4b-\	-gnus	4dd\	-gnus	4B-/	4f\	4BB-/	4b-\	4dd\
.	.	16b-\LL	16dd\LL	.	.	.	.	.	.	.	.	.	.	.	.	.
8B-\L	.	16b-\	16dd\	.	.	.	.	.	.	.	.	.	.	.	.	.
.	.	16b-\JJ	16dd\JJ	.	.	.	.	.	.	.	.	.	.	.	.	.
8B-\	.	24b-\LL	24dd\LL	4r	.	4r	.	4r	.	4r	.	4r	4r	4r	4r	4r
.	.	24a-\	24cc\	.	.	.	.	.	.	.	.	.	.	.	.	.
.	.	24b-\JJ	24dd\JJ	.	.	.	.	.	.	.	.	.	.	.	.	.
8B-\J	.	24cc\LL	24ee-\LL	.	.	.	.	.	.	.	.	.	.	.	.	.
.	.	24b-\	24dd\	.	.	.	.	.	.	.	.	.	.	.	.	.
.	.	24a-\JJ	24cc\JJ	.	.	.	.	.	.	.	.	.	.	.	.	.
!	!	!LO:LB:g=original	!	!	!	!	!	!LO:LB:g=original	!	!	!	!	!	!	!	!
=37	=37	=37	=37	=37	=37	=37	=37	=37	=37	=37	=37	=37	=37	=37	=37	=37
4B-\	.	4b-\	4dd\	8r	.	8r	.	8r	.	8r	.	8r	4f\	8r	16r	16r
.	.	.	.	.	.	.	.	.	.	.	.	.	.	.	16b-'\LL	16dd'\LL
.	.	.	.	8B-\	De-	8f\	De-	8b-\	De-	8dd\	De-	8B-/L	.	8B-\L	16b-'\	16dd'\
.	.	.	.	.	.	.	.	.	.	.	.	.	.	.	16b-'\JJ	16dd'\JJ
4r	.	4r	4r	4B-\	.	4f\	.	16b-\LL	.	16dd\LL	.	8B-/	8f\L	8B-\	(16b-\LL	(16dd\LL
.	.	.	.	.	.	.	.	16an\	.	16cc\	.	.	.	.	16a\)	16cc\)
.	.	.	.	.	.	.	.	16b-\	.	16dd\	.	8B-/J	8f\J	8B-\J	(16b-\	(16dd\
.	.	.	.	.	.	.	.	16cc\JJ	.	16ee-\JJ	.	.	.	.	16cc\JJ)	16ee-\JJ)
!LO:LB:g=original	!	!	!	!	!	!	!	!	!	!LO:LB:g=original	!	!	!	!	!LO:LB:g=original	!
=38	=38	=38	=38	=38	=38	=38	=38	=38	=38	=38	=38	=38	=38	=38	=38	=38
8r	.	16r	16r	4A-X\	-i	4f\	-i	4b-\	-i	4dd\	-i	4B-/	4f\	4A-X\	4b-\	4dd\
.	.	16dd\LL	16dd\LL	.	.	.	.	.	.	.	.	.	.	.	.	.
8A-X\L	4_ 2_	16dd\	16dd\	.	.	.	.	.	.	.	.	.	.	.	.	.
.	.	16b-\JJ	16dd\JJ	.	.	.	.	.	.	.	.	.	.	.	.	.
8A-\	.	16b-\LL	(16dd\LL	4r	.	4r	.	4r	.	4r	.	4r	4r	4r	4r	4r
.	.	16cc\	16ee-\)	.	.	.	.	.	.	.	.	.	.	.	.	.
8A-\J	x	16dd\	(16ff\	.	.	.	.	.	.	.	.	.	.	.	.	.
.	.	16b-\JJ	16dd\JJ)	.	.	.	.	.	.	.	.	.	.	.	.	.
=39	=39	=39	=39	=39	=39	=39	=39	=39	=39	=39	=39	=39	=39	=39	=39	=39
4G\	6	4g/	4ee-\	8r	.	8r	.	8r	.	8r	.	8r	8r	8r	16r	16r
.	.	.	.	.	.	.	.	.	.	.	.	.	.	.	16g'/LL	16ee-'\LL
.	.	.	.	8G\	qui-	8B-\	qui	8g\	qui	8ee-\	qui	8B-/L	8B-/L	8G\L	16g'/	16ee-'\
.	.	.	.	.	.	.	.	.	.	.	.	.	.	.	16g'/JJ	16ee-'\JJ
4r	.	4r	4r	4G\	-tol-	4B-\	tol-	16g\LL	tol-	16ee-\LL	tol-	8B-/	8B-/	8G\	(16g/LL	(16ee-\LL
.	.	.	.	.	.	.	.	16f\	.	16dd\	.	.	.	.	16f/)	16dd\
.	.	.	.	.	.	.	.	16g\	.	16ee-\	.	8B-/J	8B-/J	8G\J	(16g/	16ee-\
.	.	.	.	.	.	.	.	16a-X\JJ	.	16ff\JJ	.	.	.	.	16a-X/JJ)	16ff\JJ)
!	!	!	!LO:PB:g=original	!	!	!	!	!	!	!	!	!	!	!LO:LB:g=original	!	!
=40	=40	=40	=40	=40	=40	=40	=40	=40	=40	=40	=40	=40	=40	=40	=40	=40
8r	.	16r	16r	4G\	-lis	4B-\	-lis	4g\	-lis	4ee-\	-lis	4B-/	4B-/	4G\	4g/	4ee-`\
.	.	16g/LL	16ee-\LL	.	.	.	.	.	.	.	.	.	.	.	.	.
8G\L	6_	16g/	16ee-\	.	.	.	.	.	.	.	.	.	.	.	.	.
.	.	16g/JJ	16ee-\JJ	.	.	.	.	.	.	.	.	.	.	.	.	.
!	!	!LO:TUP:b	!	!	!	!	!	!	!	!	!	!	!	!	!	!
8G\	.	24g/LL	24ee-\LL	4r	.	4r	.	4r	.	4r	.	4r	4r	4r	4r	4r
.	.	24f/	24dd\	.	.	.	.	.	.	.	.	.	.	.	.	.
.	.	24g/JJ	24ee-\JJ	.	.	.	.	.	.	.	.	.	.	.	.	.
!	!	!LO:TUP:b	!	!	!	!	!	!	!	!	!	!	!	!	!	!
8G\J	x	24a-/LL	24ff\LL	.	.	.	.	.	.	.	.	.	.	.	.	.
.	.	24g/	24ee-\	.	.	.	.	.	.	.	.	.	.	.	.	.
.	.	24f/JJ	24dd\JJ	.	.	.	.	.	.	.	.	.	.	.	.	.
!	!	!	!	!	!	!	!	!LO:LB:g=original	!	!	!	!	!LO:LB:g=original	!	!	!LO:LB:g=original
=41	=41	=41	=41	=41	=41	=41	=41	=41	=41	=41	=41	=41	=41	=41	=41	=41
4G\	.	4g/	4ee-\	8r	.	8r	.	8r	.	8r	.	8r	8r	8r	16r	16r
.	.	.	.	.	.	.	.	.	.	.	.	.	.	.	16g'/LL	16ee-'\LL
.	.	.	.	8G\	pec-	8B-\	pec-	8g\	pec-	8ee-\	pec-	8B-/L	8B-/L	8G\L	16g'/	16ee-'\
.	.	.	.	.	.	.	.	.	.	.	.	.	.	.	16g'/JJ	16ee-'\JJ
!	!	!	!	!LO:LB:g=original	!	!	!	!	!	!	!	!	!	!	!	!
4r	.	4r	4r	4G\	-ca-	4B-\	-ca-	16g\LL	-ca-	16ee-\LL	-ca-	8B-/	8B-/	8G\	(16g/LL	(16ee-\LL
.	.	.	.	.	.	.	.	16f\	.	16dd\	.	.	.	.	16f/)	16dd\)
.	.	.	.	.	.	.	.	16g\	.	16ee-\	.	8B-/J	8B-/J	8G\J	(16g/	(16ee-\
.	.	.	.	.	.	.	.	16a-\JJ	.	16ff\JJ	.	.	.	.	16a-/JJ)	16ff\JJ)
!	!	!	!	!	!	!LO:LB:g=original	!	!	!	!LO:LB:g=original	!	!LO:LB:g=original	!	!	!	!
=42	=42	=42	=42	=42	=42	=42	=42	=42	=42	=42	=42	=42	=42	=42	=42	=42
!	!	!	!	!	!	!LO:SIC:l:s=-ta:v	!	!	!	!	!	!	!	!	!	!
4r	.	16r	16r	4E-\	-ta	4B-\	-cata	4b-\	-ta	4gg\	-ta	4G/	4B-/	4E-\	4b-\	4gg\
.	.	16ee-\LL	16ee-\LL	.	.	.	.	.	.	.	.	.	.	.	.	.
.	.	16b-\	16b-\	.	.	.	.	.	.	.	.	.	.	.	.	.
.	.	16ee-\JJ	16ee-\JJ	.	.	.	.	.	.	.	.	.	.	.	.	.
8r	.	16gg\LL	16gg\LL	8r	.	8r	.	8r	.	8r	.	8r	8r	8r	8r	8r
.	.	16ee-\	16ee-\	.	.	.	.	.	.	.	.	.	.	.	.	.
8E-\	.	16bb-\	16bb-\	8E-\	qui-	8B-\	qui	8g\	qui	8ee-\	qui	8G/	8e-\	8E-\	8ee-\	8gg\
.	.	16gg\JJ	16gg\JJ	.	.	.	.	.	.	.	.	.	.	.	.	.
!LO:LB:g=original	!	!	!	!	!	!	!	!	!	!	!	!	!	!	!LO:LB:g=original	!
=43	=43	=43	=43	=43	=43	=43	=43	=43	=43	=43	=43	=43	=43	=43	=43	=43
!	!	!	!LO:TX:a:t=P:problem:t. 43 ujęty w repetycję	!	!	!	!	!	!	!	!	!	!	!	!	!
8B-\L	.	24ff\LL	24ff\LL	8B-\	-tol-	8B-\	tol-	8f\	tol-	8dd\	tol-	8B-\L	8f\L	8BB-\L	8dd\L	8ff\L
.	.	24ee-\	24ee-\	.	.	.	.	.	.	.	.	.	.	.	.	.
.	.	24ff\J	24ff\J	.	.	.	.	.	.	.	.	.	.	.	.	.
8E-\J	.	8ee-\J	8ee-\J	8E-\	-lis	8B-\	-lis	8g\	-lis	8ee-\	-lis	8e-\J	8g\J	8E-\J	8ee-\J	8gg\J
!	!	!LO:LB:g=original	!	!	!	!	!	!	!	!	!	!	!	!	!	!
8r	.	16gg\LL	16gg\LL	8r	.	8r	.	8r	.	8r	.	8r	8r	8r	8r	8r
.	.	16ee-\	16ee-\	.	.	.	.	.	.	.	.	.	.	.	.	.
8E-\	.	16bb-\	16bb-\	8E-\	pec-	8B-\	pec-	8g\	pec-	8ee-\	pec-	8e-\	8g\	8E-\	8ee-\	8gg\
.	.	16gg\JJ	16gg\JJ	.	.	.	.	.	.	.	.	.	.	.	.	.
=44	=44	=44	=44	=44	=44	=44	=44	=44	=44	=44	=44	=44	=44	=44	=44	=44
!	!	!	!LO:TX:a:t=P:problem:t. 44 zapisany jako repetycja	!	!	!	!	!	!	!	!	!	!	!	!	!
8B-\L	.	24ff\LL	24ff\LLyy	8B-\	-ca-	8B-\	-ca-	8f\	-ca-	8dd\	-ca-	8B-\L	8f\L	8BB-\L	8dd\L	8ff\L
.	.	24ee-\	24ee-\yy	.	.	.	.	.	.	.	.	.	.	.	.	.
.	.	24ff\J	24ff\Jyy	.	.	.	.	.	.	.	.	.	.	.	.	.
8E-\J	.	8ee-\J	8ee-\Jyy	8E-\	-ta	8B-\	-ta	8g\	-ta	8ee-\	-ta	8e-\J	8g\J	8E-\J	8ee-\J	8gg\J
8r	.	16gg\LL	16gg\LLyy	8r	.	8r	.	8r	.	8r	.	8r	8r	8r	8r	8r
.	.	16ee-\	16ee-\yy	.	.	.	.	.	.	.	.	.	.	.	.	.
8E-\	.	16gg\	16bb-\yy	8E-\	qui-	8B-\	qui	8g\	qui	8ee-\	qui	8e-\	8g\	8E-\	8ee-\	8gg\
.	.	16ee-\JJ	16gg\JJyy	.	.	.	.	.	.	.	.	.	.	.	.	.
!	!	!	!LO:LB:g=original	!	!	!	!	!LO:LB:g=original	!	!	!	!	!	!	!	!
=45	=45	=45	=45	=45	=45	=45	=45	=45	=45	=45	=45	=45	=45	=45	=45	=45
!LO:TX:a:t=P:problem:mixed beam	!	!	!	!	!	!	!	!	!	!	!	!	!	!LO:TX:a:t=P:problem:mixed beam	!	!
8A-\L	6	8cc\L	16gg\LL	8A-\	-tol-	8B-\	tol-	8a-\	to-	8ff\	tol-	4f\	4a-\	8A-\L	4ff\	4aa-\
.	.	.	16ff\	.	.	.	.	.	.	.	.	.	.	.	.	.
8A-\	.	16cc\L	16aa-\	16A-\	-lis	16B-\	-lis	16a-\	-lis	16ff\	-lis	.	.	8A-\	.	.
.	.	16a-\JJ	16ff\JJ	16A-\	pec-	16B-\	pec-	16a-\	pec-	16ff\	pec-	.	.	.	.	.
!	!	!	!	!LO:LB:g=original	!	!LO:LB:g=original	!	!	!	!LO:LB:g=original	!	!	!	!	!	!
8B-\	4	8g/L	8ee-\L	8B-\	-ca-	8B-\	-ca-	8g\	-ca-	8ee-\	-ca-	8e-\L	8g\L	8B-\	8ee-\L	8gg\L
8BB-/J	3	8f/J	8dd\J	8BB-/	.	8B-\	.	8f\	.	8dd\	.	8B-\J	8f\J	8BB-/J	8dd\J	8ff\J
!	!	!	!	!	!	!	!	!	!	!	!	!	!	!LO:LB:g=original	!	!LO:LB:g=original
=46	=46	=46	=46	=46	=46	=46	=46	=46	=46	=46	=46	=46	=46	=46	=46	=46
4E-\	.	4g/	16ee-\LL	4E-\	-ta	4B-\	-ta	4g\	-ta	4ee-\	-ta	4G/	4e-\	4E-\	4ee-\	4gg\
.	.	.	16gg\	.	.	.	.	.	.	.	.	.	.	.	.	.
.	.	.	16ff\	.	.	.	.	.	.	.	.	.	.	.	.	.
.	.	.	16ee-\JJ	.	.	.	.	.	.	.	.	.	.	.	.	.
8r	.	8r	16dd\LL	4r	.	4r	.	4r	.	4r	.	4r	4r	4r	4r	4r
.	.	.	16ee-\	.	.	.	.	.	.	.	.	.	.	.	.	.
8G\	6 5	8e-/	16b-\	.	.	.	.	.	.	.	.	.	.	.	.	.
.	-	.	16dd-X\JJ	.	.	.	.	.	.	.	.	.	.	.	.	.
!	!	!	!	!	!	!	!	!	!	!	!	!	!LO:PB:g=original	!	!	!
=47	=47	=47	=47	=47	=47	=47	=47	=47	=47	=47	=47	=47	=47	=47	=47	=47
!LO:TX:a:t=P:problem:mixed beam	!	!	!	!	!	!	!	!	!	!	!	!	!	!	!	!
8A-\L	6 3	8f/L	24cc\LL	2r	.	2r	.	2r	.	2r	.	8r	8r	8r	8r	8r
.	.	.	24b-\	.	.	.	.	.	.	.	.	.	.	.	.	.
.	.	.	24cc\JJ	.	.	.	.	.	.	.	.	.	.	.	.	.
!	!	!	!	!	!	!	!	!	!	!	!	!	!	!LO:TX:a:t=P:problem:mixed beam	!	!
8A-\	.	8a-/	24aa-\LL	.	.	.	.	.	.	.	.	8f\L	8a-\L	8A-\L	8ff\L	8aa-\L
.	.	.	24gg\	.	.	.	.	.	.	.	.	.	.	.	.	.
.	.	.	24ff\JJ	.	.	.	.	.	.	.	.	.	.	.	.	.
8B-\	4	8g/	8ee-\L	.	.	.	.	.	.	.	.	8e-\	8g\	8B-\	8ee-\	8gg\
8BB-/J	n	8f/J	8ddn\J	.	.	.	.	.	.	.	.	8B-\J	8f\J	8BB-/J	8dd\J	8ff\J
!LO:LB:g=original	!	!	!	!	!	!	!	!	!	!	!	!	!	!	!	!
=48	=48	=48	=48	=48	=48	=48	=48	=48	=48	=48	=48	=48	=48	=48	=48	=48
4E-\	.	4g/	4ee-\	4E-\	A-	4B-\	A-	[4g\	A-	[4ee-\	A-	4G/	4e-\	8E-\L	4ee-\	4gg\
.	.	.	.	.	.	.	.	.	.	.	.	.	.	8E-\	.	.
4r	.	4r	4r	4E-\	-gnus	4B-\	-gnus	16g\LL]	.	16ee-\LL]	.	4G/	4e-\	8E-\	(16ee-\LL	(16gg\LL
.	.	.	.	.	.	.	.	16a-\JJ	.	16ff\JJ	.	.	.	.	16ff\	16aa-\)
.	.	.	.	.	.	.	.	16b-\LL	-gnus	16gg\LL	-gnus	.	.	8E-\J	16gg\	(16bb-\
.	.	.	.	.	.	.	.	16g\JJ	.	16ee-\JJ	.	.	.	.	16ee-\JJ)	16gg\JJ)
!	!	!	!LO:LB:g=original	!	!	!	!	!LO:PB:g=original	!	!	!	!LO:LB:g=original	!	!	!LO:LB:g=original	!
=49	=49	=49	=49	=49	=49	=49	=49	=49	=49	=49	=49	=49	=49	=49	=49	=49
!	!	!	!	!	!	!	!	!	!	!	!	!	!	!LO:TX:a:t=P:problem:mixed beam	!	!
8r	.	8r	16r	8B-\	De-	8B-\	De-	16g\LL	De-	16ee-\LL	De-	8B-/L	8f\L	8B-\L	(16ee-\LL	16gg\LL
.	.	.	16d/LL	.	.	.	.	16f\JJ	.	16dd\JJ	.	.	.	.	16dd\J)	16ff\J
8BB-/L	.	8d/	16f/	8BB-/	-i	8B-\	-i	8f\	-i	8dd\	-i	8B-/J	8f\J	8BB-/J	8dd'\J	8ff\J
.	.	.	16b-/JJ	.	.	.	.	.	.	.	.	.	.	.	.	.
8BB-/	.	16f/LL	16dd\LL	4r	.	4r	.	4r	.	4r	.	4r	4r	4r	4r	4r
.	.	16d/	16b-\	.	.	.	.	.	.	.	.	.	.	.	.	.
8BB-/J	.	16a-/	16ff\	.	.	.	.	.	.	.	.	.	.	.	.	.
.	.	16f/JJ	16dd\JJ	.	.	.	.	.	.	.	.	.	.	.	.	.
!	!	!	!	!	!	!	!	!	!	!LO:PB:g=original	!	!	!	!	!	!
=50	=50	=50	=50	=50	=50	=50	=50	=50	=50	=50	=50	=50	=50	=50	=50	=50
*	*	*	*	*	*	*	*	*	*	*	*	*	*	*tremolo	*	*
4BB-/	.	4dd\	4bb-\	4B-\	qui-	4B-\	qui-	[4f\	qui-	[4dd\	qui-	4B-/	4f\	8BB-/L	4dd\	4ff\
.	.	.	.	.	.	.	.	.	.	.	.	.	.	8BB-/	.	.
4r	.	4r	4r	4B-\	.	4B-\	.	16f\LL]	.	16dd\LL]	.	4B-/	4f\	8BB-/	(16dd\LL	(16ff\LL
.	.	.	.	.	.	.	.	16g\JJ	.	16ee-\JJ	.	.	.	.	16ee-\	16gg\)
.	.	.	.	.	.	.	.	16a-\LL	.	16ff\LL	.	.	.	8BB-/J	16ff\	(16aa-\
.	.	.	.	.	.	.	.	16f\JJ	.	16dd\JJ	.	.	.	.	16dd\JJ)	16ff\JJ)
*	*	*	*	*	*	*	*	*	*	*	*	*	*	*Xtremolo	*	*
!	!	!LO:LB:g=original	!	!	!	!LO:LB:g=original	!	!	!	!	!	!	!	!	!	!LO:LB:g=original
=51	=51	=51	=51	=51	=51	=51	=51	=51	=51	=51	=51	=51	=51	=51	=51	=51
8r	.	16r	16r	8e-\	-tol-	8B-\	-tol-	16f\LL	-tol-	16dd\LL	-tol-	8G/L	8e-\L	8E-\L	16dd\LL	16ff\LL
.	.	16e-/LL	16e-/LL	.	.	.	.	16g\JJ	.	16ee-\JJ	.	.	.	.	16ee-\J	16gg\J
8E-\L	.	16B-/	16g/	8E-\	-lis	8B-\	-lis	8g\	-lis	8ee-\	-lis	8G/J	8e-\J	8E-\J	8ee-\J	8gg\J
.	.	16e-/JJ	16b-/JJ	.	.	.	.	.	.	.	.	.	.	.	.	.
8E-\	.	16g/LL	16ee-\LL	4r	.	4r	.	4r	.	4r	.	4r	4r	4r	4r	4r
.	.	16e-/	16b-\	.	.	.	.	.	.	.	.	.	.	.	.	.
8E-\J	.	16b-/	16gg\	.	.	.	.	.	.	.	.	.	.	.	.	.
.	.	16g/JJ	16ee-\JJ	.	.	.	.	.	.	.	.	.	.	.	.	.
!	!	!	!	!LO:LB:g=original	!	!	!	!	!	!	!	!	!	!	!	!
=52	=52	=52	=52	=52	=52	=52	=52	=52	=52	=52	=52	=52	=52	=52	=52	=52
4E-\	.	4gg\	4bb-\	4E-\	pec-	4B-\	pec-	[4g\	pec-	4ee-\	pec-	4G/	4e-\	8E-\L	4ee-\	4gg\
.	.	.	.	.	.	.	.	.	.	.	.	.	.	8E-\	.	.
4r	.	4r	4r	4E-\	.	4B-\	.	16g\LL]	.	16ee-\LL	.	4G/	4e-\	8E-\	(16ee-\LL	(16gg\LL
.	.	.	.	.	.	.	.	16a-\JJ	.	16ff\JJ	.	.	.	.	16ff\)	16aa-\)
.	.	.	.	.	.	.	.	16b-\LL	.	16gg\LL	.	.	.	8E-\J	(16gg\	(16bb-\
.	.	.	.	.	.	.	.	16g\JJ	.	16ee-\JJ	.	.	.	.	16ee-\JJ)	16gg\JJ)
!LO:LB:g=original	!	!	!	!	!	!	!	!LO:LB:g=original	!	!LO:LB:g=original	!	!	!	!LO:LB:g=original	!	!
=53	=53	=53	=53	=53	=53	=53	=53	=53	=53	=53	=53	=53	=53	=53	=53	=53
*^	*	*	*	*	*	*	*	*	*	*	*	*	*	*	*	*
!	!	!	!LO:N:vis=0	!LO:N:vis=0	!	!	!	!	!	!	!	!	!	!	!	!	!
*	*	*	*	*	*	*	*	*	*	*	*	*	*	*	*tremolo	*	*
8BB-/L	2r	.	1r	1r	4B-\	-ca-	4B-\	-ca-	16g\LL	-ca-	16ee-\LL	-ca-	4B-/	4f\	8BB-/L	16ee-\LL	16gg\LL
.	.	.	.	.	.	.	.	.	16f\JJ	.	16dd\JJ	.	.	.	.	16dd\JJ	16ff\JJ
!	!LO:TX:b:t=1	!	!	!	!	!	!	!	!	!	!	!	!	!	!	!	!
8BB-/	.	.	.	.	.	.	.	.	4f\	-ta	4dd\	-ta	.	.	8BB-/	4dd\	4ff\
8BB-/	.	.	.	.	8B-\	.	8B-\	.	.	.	.	.	4B-/	4f\	8BB-/	.	.
8BB-/J	.	.	.	.	8B-\	-ta	8B-\	-ta	16g\LL	.	16ee-\LL	.	.	.	8BB-/J	16ee-\LL	16gg\LL
.	.	.	.	.	.	.	.	.	16a-\JJ	.	16ff\JJ	.	.	.	.	16ff\JJ	16aa-\JJ
*	*	*	*	*	*	*	*	*	*	*	*	*	*	*	*Xtremolo	*	*
=54	=54	=54	=54	=54	=54	=54	=54	=54	=54	=54	=54	=54	=54	=54	=54	=54	=54
8E-/L	2r	.	.	.	8E-\	pec-	8B-\	pec-	8b-\	pec-	8gg\	pec-	8e-\L	8g\L	8E-\L	8gg\L	8bb-\L
!	!	!	!	!	!	!	!	!	!	!	!	!	!	!	!LO:TX:a:t=P:problem:mixed beam	!	!
8A-/	.	.	.	.	16A-\	.	16c\	.	16cc\	.	16aa-\	.	8f\	8a-\	8A-\	16aa-\L	16ccc\L
!LO:TX:b:t=2	!	!	!	!	!	!	!	!	!	!	!	!	!	!	!	!	!
.	.	.	.	.	16A-\	.	16c\	.	16a-\	.	16ff\	.	.	.	.	16ff\JJ	16aa-\JJ
8B-/	.	.	.	.	8B-\	-ca-	8B-\	-ca-	8g\	-ca-	8ee-\	-ca-	8e-\	8g\	8B-\	8ee-\L	8gg\L
8BB-/J	.	.	.	.	8BB-/	-ta	8B-\	-ta	8f\	-ta	8dd\	-ta	8B-\J	8f\J	8BB-/J	8dd\J	8ff\J
!	!	!	!	!LO:LB:g=original	!	!	!LO:LB:g=original	!	!	!	!	!	!	!LO:LB:g=original	!	!	!
=55	=55	=55	=55	=55	=55	=55	=55	=55	=55	=55	=55	=55	=55	=55	=55	=55	=55
!	!	!	!	!	!	!	!LO:TX:a:t=P:problem:skreślony jeden takt	!	!	!	!	!	!	!	!	!	!
8E-/L	2r	.	16r	16r	8E-\	mun-	8B-\	mun-	8g\	mun-	8ee-\	mun-	8G/L	8e-\L	8E-\L	8ee-\L	8gg\L
.	.	.	16e-/LL	16e-/LL	.	.	.	.	.	.	.	.	.	.	.	.	.
!LO:TX:b:t=3	!	!	!	!	!	!	!	!	!	!	!	!	!	!	!	!	!
8E-/J	.	.	16g/	16g/	8E-\	-di	8B-\	-di	8g\	-di	8ee-\	-di	8G/J	8e-\J	8E-\J	8ee-\J	8gg\J
.	.	.	16b-/JJ	16b-/JJ	.	.	.	.	.	.	.	.	.	.	.	.	.
4r	.	.	16ee-\LL	16ee-\LL	4r	.	4r	.	4r	.	4r	.	4r	4r	4r	4r	4r
.	.	.	16gg\	16gg\	.	.	.	.	.	.	.	.	.	.	.	.	.
.	.	.	16bb-\	16bb-\	.	.	.	.	.	.	.	.	.	.	.	.	.
.	.	.	16gg\JJ	16gg\JJ	.	.	.	.	.	.	.	.	.	.	.	.	.
*v	*v	*	*	*	*	*	*	*	*	*	*	*	*	*	*	*	*
!	!	!	!	!	!	!	!	!	!	!LO:LB:g=original	!	!	!	!	!LO:LB:g=original	!LO:PB:g=original
=56	=56	=56	=56	=56	=56	=56	=56	=56	=56	=56	=56	=56	=56	=56	=56	=56
8E-\L	.	(16ff\LL	(16ff\LL	4E-\	Mi-	4B-\	Mi-	4g\	mi-	4ee-\	mi-	2e-\	2g\	8E-\L	2b-\	2gg\
.	.	16ee-\)	16ee-\)	.	.	.	.	.	.	.	.	.	.	.	.	.
8E-\	.	16ee-'\	16ee-'\	.	.	.	.	.	.	.	.	.	.	8E-\	.	.
.	.	16ee-'\JJ	16ee-'\JJ	.	.	.	.	.	.	.	.	.	.	.	.	.
8E-\	.	(16ee-\LL	(16ee-\LL	4E-\	-se-	4B-\	-se-	4g\	-se-	4ee-\	-se-	.	.	8E-\	.	.
.	.	16ff\)	16ff\)	.	.	.	.	.	.	.	.	.	.	.	.	.
8E-\J	.	(16gg\	(16gg\	.	.	.	.	.	.	.	.	.	.	8E-\J	.	.
.	.	16aa-\JJ)	16aa-\JJ)	.	.	.	.	.	.	.	.	.	.	.	.	.
!LO:LB:g=original	!	!	!	!	!	!	!	!LO:LB:g=original	!	!	!	!	!	!	!	!
=57	=57	=57	=57	=57	=57	=57	=57	=57	=57	=57	=57	=57	=57	=57	=57	=57
*	*	*	*	*	*	*	*	*	*	*	*	*	*	*tremolo	*	*
8A-\L	6_	(16gg\LL	(16gg\LL	4A-\	-re-	4c\	-re-	4a-\	-re-	4ff\	-re-	2f\	2a-\	8A-\L	2cc\	2ff\
.	.	16ff\)	16ff\)	.	.	.	.	.	.	.	.	.	.	.	.	.
8A-\	.	16ff'\	16ff'\	.	.	.	.	.	.	.	.	.	.	8A-\	.	.
.	.	16ff'\JJ	16ff'\JJ	.	.	.	.	.	.	.	.	.	.	.	.	.
8A-\	.	(16ccc\LL	(16bb-\LL	4A-\	-re	4c\	-re	4a-\	-re	4ff\	-re	.	.	8A-\	.	.
.	.	16aa-\)	16aa-\)	.	.	.	.	.	.	.	.	.	.	.	.	.
8A-\J	x	(16gg\	(16gg\	.	.	.	.	.	.	.	.	.	.	8A-\J	.	.
.	.	16ff\JJ)	16ff\JJ)	.	.	.	.	.	.	.	.	.	.	.	.	.
!	!	!	!	!LO:LB:g=original	!	!	!	!	!	!	!	!	!	!	!	!
=58	=58	=58	=58	=58	=58	=58	=58	=58	=58	=58	=58	=58	=58	=58	=58	=58
*	*	*	*	*	*ij	*	*ij	*	*ij	*	*ij	*	*	*	*	*
8B-\L	.	(16ee-\LL	(16ee-\LL	4B-\	mi-	4B-\	mi-	4f\	mi-	4dd\	mi-	2B-/	2f\	8B-\L	2dd\	2ff\
.	.	16dd\)	16dd\)	.	.	.	.	.	.	.	.	.	.	.	.	.
8B-\	.	16dd'\	16dd'\	.	.	.	.	.	.	.	.	.	.	8B-\	.	.
.	.	16dd'\JJ	16dd'\JJ	.	.	.	.	.	.	.	.	.	.	.	.	.
!	!	!	!LO:LB:g=original	!	!	!	!	!	!	!	!	!	!	!	!	!
8B-\	.	(16dd\LL	(16dd\LL	4B-\	-se-	4B-\	-se-	4f\	-se-	4dd\	-se-	.	.	8B-\	.	.
.	.	16ee-\)	16ee-\)	.	.	.	.	.	.	.	.	.	.	.	.	.
8B-\J	.	(16ff\	(16ff\	.	.	.	.	.	.	.	.	.	.	8B-\J	.	.
.	.	16gg\JJ)	16gg\JJ)	.	.	.	.	.	.	.	.	.	.	.	.	.
!	!	!LO:LB:g=original	!	!	!	!	!	!	!	!	!	!	!	!	!	!
=59	=59	=59	=59	=59	=59	=59	=59	=59	=59	=59	=59	=59	=59	=59	=59	=59
8E-\L	.	(16ff\LL	(16ff\LL	4E-\	-re-	4B-\	-re-	4g\	-re-	4ee-\	-re-	2e-\	2g\	8E-\L	2ee-\	2gg\
.	.	16ee-\)	16ee-\)	.	.	.	.	.	.	.	.	.	.	.	.	.
8E-\	.	16ee-'\	16ee-'\	.	.	.	.	.	.	.	.	.	.	8E-\	.	.
.	.	16ee-'\JJ	16ee-'\JJ	.	.	.	.	.	.	.	.	.	.	.	.	.
8E-\	.	(16aa-\LL	(16aa-\LL	4E-\	-re	4B-\	-re	4g\	-re	4ee-\	-re	.	.	8E-\	.	.
.	.	16gg\)	16gg\)	.	.	.	.	.	.	.	.	.	.	.	.	.
8E-\J	.	(16ff\	(16ff\	.	.	.	.	.	.	.	.	.	.	8E-\J	.	.
.	.	16ee-\JJ)	16ee-\JJ)	.	.	.	.	.	.	.	.	.	.	.	.	.
*	*	*	*	*	*	*	*	*	*	*	*	*	*	*Xtremolo	*	*
!	!	!	!	!	!	!	!LO:LB:g=original	!	!	!	!	!LO:LB:g=original	!	!	!	!
=60	=60	=60	=60	=60	=60	=60	=60	=60	=60	=60	=60	=60	=60	=60	=60	=60
*	*	*tremolo	*	*	*	*	*	*	*	*	*	*	*	*	*	*
8A-\L	6_	8cc\L	(16een\LL	4A-\	mi-	4c\	mi-	4cc\	mi-	4ff\	mi-	2f\	2a-\	8A-\L	2ff\	2aa-\
.	.	.	16ff\)	.	.	.	.	.	.	.	.	.	.	.	.	.
8A-\	.	8cc\	16ff'\	.	.	.	.	.	.	.	.	.	.	8A-\	.	.
.	.	.	16ff'\JJ	.	.	.	.	.	.	.	.	.	.	.	.	.
8A-\	.	8cc\	(8.aa-\L	4A-\	-se-	4c\	-se-	4cc\	-se-	4ff\	-se-	.	.	8A-\	.	.
8A-\J	x	8cc\J	.	.	.	.	.	.	.	.	.	.	.	8A-\J	.	.
.	.	.	16ff\Jk)	.	.	.	.	.	.	.	.	.	.	.	.	.
!LO:LB:g=original	!	!	!	!	!	!	!	!	!	!	!	!	!	!LO:LB:g=original	!	!
=61	=61	=61	=61	=61	=61	=61	=61	=61	=61	=61	=61	=61	=61	=61	=61	=61
*	*	*	*	*	*	*	*	*	*	*	*	*	*	*tremolo	*	*
8G\L	6_	8b-\L	(16ff\LL	4G\	-re-	4e-\	-re-	4b-\	-re-	4ee-\	-re-	2e-\	2g\	8G\L	2ee-\	2gg\
.	.	.	16ee-X\)	.	.	.	.	.	.	.	.	.	.	.	.	.
8G\	.	8b-\	16ee-'\	.	.	.	.	.	.	.	.	.	.	8G\	.	.
.	.	.	16ee-'\JJ	.	.	.	.	.	.	.	.	.	.	.	.	.
8G\	.	8b-\	(8.gg\L	4G\	-re	4e-\	-re	4b-\	-re	4ee-\	-re	.	.	8G\	.	.
8G\J	x	8b-\J	.	.	.	.	.	.	.	.	.	.	.	8G\J	.	.
.	.	.	16ee-\Jk)	.	.	.	.	.	.	.	.	.	.	.	.	.
*	*	*	*	*	*	*	*	*	*	*	*	*	*	*Xtremolo	*	*
*	*	*Xtremolo	*	*	*	*	*	*	*	*	*	*	*	*	*	*
*	*	*Xtremolo	*	*	*Xij	*	*Xij	*	*Xij	*	*Xij	*	*	*Xtremolo	*	*
!	!	!	!LO:LB:g=original	!	!	!	!	!LO:LB:g=original	!	!	!	!	!	!	!	!
=62	=62	=62	=62	=62	=62	=62	=62	=62	=62	=62	=62	=62	=62	=62	=62	=62
!LO:TX:a:t=P:problem:mixed beam	!	!	!	!	!	!	!	!	!	!	!	!	!	!LO:TX:a:t=P:problem:mixed beam	!	!
8A-\L	6	8cc/L	24ff\LL	4A-\	no-	4c\	no-	4a-\	no-	4ff\	no-	4f\	4a-\	8A-\L	4ff\	4aa-\
.	.	.	24ee-\	.	.	.	.	.	.	.	.	.	.	.	.	.
.	.	.	24ff\JJ	.	.	.	.	.	.	.	.	.	.	.	.	.
!	!	!LO:TUP:b	!	!	!	!	!	!	!	!	!	!	!	!	!	!
8A-\	.	24cc/L	24aa-\LL	.	.	.	.	.	.	.	.	.	.	8A-\	.	.
.	.	24b-/	24gg\	.	.	.	.	.	.	.	.	.	.	.	.	.
.	.	24a-/JJ	24ff\JJ	.	.	.	.	.	.	.	.	.	.	.	.	.
!	!	!	!	!LO:TX:a:t=P:problem:mixed beam	!	!	!	!	!	!	!	!	!	!	!	!
8B-\	4	8g/L	8ee-\L	8B-\L	.	4B-\	.	8g\L	.	8ee-\L	.	8e-\L	8g\L	8B-\	8ee-\L	8gg\L
8BB-\J	3	8f/J	8dd\J	8BB-/J	.	.	.	8f\J	.	8dd\J	.	8B-\J	8f\J	8BB-/J	8dd\J	8ff\J
=63	=63	=63	=63	=63	=63	=63	=63	=63	=63	=63	=63	=63	=63	=63	=63	=63
4E-\	.	8g/L	16ee-\LL	4E-\	-bis	4B-\	-bis	4g\	-bis	4ee-\	-bis.	4G/	4e-\	4E-\	4ee-\	4gg\
.	.	.	16b-\	.	.	.	.	.	.	.	.	.	.	.	.	.
.	.	16g/L	16ee-\	.	.	.	.	.	.	.	.	.	.	.	.	.
.	.	16b-/JJ	16gg\JJ	.	.	.	.	.	.	.	.	.	.	.	.	.
8r	.	16b-/LL	16gg\LL	4r	.	4r	.	4r	.	4r	.	4r	4r	4r	4r	4r
.	.	16a-/	16ff\	.	.	.	.	.	.	.	.	.	.	.	.	.
8BB-/	.	16g/	16ee-\	.	.	.	.	.	.	.	.	.	.	.	.	.
.	.	16f/JJ	16dd\JJ	.	.	.	.	.	.	.	.	.	.	.	.	.
!LO:LB:g=original	!	!	!LO:LB:g=original	!	!	!	!	!	!	!	!	!	!	!	!	!
=64	=64	=64	=64	=64	=64	=64	=64	=64	=64	=64	=64	=64	=64	=64	=64	=64
4E-\	.	8g/L	16ee-\LL	2r	.	2r	.	2r	.	2r	.	2r	2r	2r	2r	2r
.	.	.	16b-\	.	.	.	.	.	.	.	.	.	.	.	.	.
.	.	16e-/L	16g\	.	.	.	.	.	.	.	.	.	.	.	.	.
.	.	16g/JJ	16b-\JJ	.	.	.	.	.	.	.	.	.	.	.	.	.
8r	.	16g/LL	16b-/LL	.	.	.	.	.	.	.	.	.	.	.	.	.
.	.	16f/	16a-/	.	.	.	.	.	.	.	.	.	.	.	.	.
8BB-/	.	16e-/	16g/	.	.	.	.	.	.	.	.	.	.	.	.	.
.	.	16d/JJ	16f/JJ	.	.	.	.	.	.	.	.	.	.	.	.	.
=65	=65	=65	=65	=65	=65	=65	=65	=65	=65	=65	=65	=65	=65	=65	=65	=65
!	!	!	!	!	!	!	!	!LO:TX:b:t=Verte Dona nobis.	!	!LO:TX:b:t=Verte Dona nobis	!	!	!	!	!	!
8E-\L	.	8e-/L	8g/L	2r;	.	2r;	.	2r;	.	2r;	.	2r;	2r;	2r;	2r;	2r;
8E-\J	.	8e-/	8g/	.	.	.	.	.	.	.	.	.	.	.	.	.
8E-;\	.	8e-/J	8g;/J	.	.	.	.	.	.	.	.	.	.	.	.	.
8r	.	8r;	8r	.	.	.	.	.	.	.	.	.	.	.	.	.
==	==	==	==	==	==	==	==	==	==	==	==	==	==	==	==	==
*-	*-	*-	*-	*-	*-	*-	*-	*-	*-	*-	*-	*-	*-	*-	*-	*-
!!!system-decoration: [(g1)][(g2)][(g3)][(g4)][(g5)]
!!!ENC: Marcin Jachim
!!!END: 2020-06-27
!!!ENC: Anna Matuszewska
!!!END: 2020-11-20
